icons/svg/seamark/notice_regulation_keeptostarboard.svg

<?xml version="1.0" encoding="UTF-8" standalone="no"?>
<svg
   xmlns:dc="http://purl.org/dc/elements/1.1/"
   xmlns:cc="http://creativecommons.org/ns#"
   xmlns:rdf="http://www.w3.org/1999/02/22-rdf-syntax-ns#"
   xmlns:svg="http://www.w3.org/2000/svg"
   xmlns="http://www.w3.org/2000/svg"
   xmlns:sodipodi="http://sodipodi.sourceforge.net/DTD/sodipodi-0.dtd"
   xmlns:inkscape="http://www.inkscape.org/namespaces/inkscape"
   width="320"
   height="320"
   id="svg2"
   version="1.1"
   inkscape:version="0.48.4 r9939"
   sodipodi:docname="notice_regulation_keeptoport.svg">
  <defs
     id="defs13">
    <inkscape:path-effect
       effect="gears"
       id="path-effect3774"
       is_visible="true"
       teeth="6"
       phi="-1.2" />
    <inkscape:path-effect
       effect="bend_path"
       id="path-effect3772"
       is_visible="false"
       bendpath="m 95.790098,316.51174 c 144.429032,-206.42506 223.313032,-11.7428 339.548092,0"
       prop_scale="1.19"
       scale_y_rel="false"
       vertical="false"
       bendpath-nodetypes="cc" />
    <inkscape:path-effect
       effect="spiro"
       id="path-effect3775-7"
       is_visible="true" />
    <inkscape:path-effect
       effect="spiro"
       id="path-effect3775-7-9"
       is_visible="true" />
  </defs>
  <sodipodi:namedview
     pagecolor="#ffffff"
     bordercolor="#666666"
     borderopacity="1"
     objecttolerance="10"
     gridtolerance="10"
     guidetolerance="10"
     inkscape:pageopacity="0"
     inkscape:pageshadow="2"
     inkscape:window-width="1920"
     inkscape:window-height="1004"
     id="namedview11"
     showgrid="false"
     inkscape:zoom="1.6275861"
     inkscape:cx="110.04575"
     inkscape:cy="141.85611"
     inkscape:window-x="1680"
     inkscape:window-y="0"
     inkscape:window-maximized="1"
     inkscape:current-layer="svg2"
     inkscape:snap-bbox="true"
     inkscape:object-nodes="true"
     inkscape:snap-midpoints="true"
     inkscape:snap-grids="true"
     inkscape:snap-bbox-edge-midpoints="true"
     showguides="true"
     inkscape:guide-bbox="true">
    <inkscape:grid
       type="xygrid"
       id="grid2990"
       empspacing="5"
       visible="true"
       enabled="true"
       snapvisiblegridlinesonly="true"
       spacingx="10px"
       spacingy="10px"
       dotted="false" />
    <sodipodi:guide
       orientation="1,0"
       position="55.202458,260.58927"
       id="guide3872" />
    <sodipodi:guide
       orientation="1,0"
       position="265.17816,340"
       id="guide3874" />
    <sodipodi:guide
       orientation="0,1"
       position="317.80107,264.96094"
       id="guide3876" />
    <sodipodi:guide
       orientation="0,1"
       position="325.098,54.759006"
       id="guide3878" />
  </sodipodi:namedview>
  <metadata
     id="metadata2975">image/svg+xmlen<rdf:RDF>
  <cc:Work
     rdf:about="">
    <dc:format>image/svg+xml</dc:format>
    <dc:type
       rdf:resource="http://purl.org/dc/dcmitype/StillImage" />
    <dc:title></dc:title>
  </cc:Work>
</rdf:RDF>
</metadata>
  <path
     style="color:#000000;fill:#000000;fill-opacity:1;stroke:none;stroke-width:15.17103481;marker:none;visibility:visible;display:inline;overflow:visible;enable-background:accumulate"
     d="m 231.125,119.60733 -24.40228,-29.212885 -24.72659,29.210475 15.04796,6.3e-4 0,120.39445 18.66139,0 0.003,-120.39014 15.41652,-0.003"
     id="path3772-3"
     inkscape:path-effect="#path-effect3775-7"
     inkscape:original-d="m 231.125,119.60733 -24.40228,-29.212885 -24.72659,29.210475 15.04796,6.3e-4 0,120.39445 18.66139,0 0.003,-120.39014 z"
     inkscape:connector-curvature="0"
     sodipodi:nodetypes="cccccccc" />
  <path
     style="color:#000000;fill:#000000;fill-opacity:1;stroke:none;stroke-width:15.17103481;marker:none;visibility:visible;display:inline;overflow:visible;enable-background:accumulate"
     d="m 123.71875,80 0,4.40625 -18.6875,0 0,-4.40625 z m 0,15.84451 0,28.71723 -18.6875,0 0,-28.71723 z m 0,38.2904 0,31.73018 -18.6875,0 0,-31.73018 z m 0,42.38948 0,23.85061 15.40625,0.0312 -24.40625,29.1875 L 90,200.4062 l 15.03125,0 0,-23.88186 z"
     id="path3772-3-8"
     inkscape:connector-curvature="0"
     sodipodi:nodetypes="ccccccccccccccccccccccc" />
</svg>

<svg width="320" height="320" viewBox="0 0 320 320" fill="none" xmlns="http://www.w3.org/2000/svg">
<path d="M231.125 119.607L206.723 90.3945L181.996 119.605L197.044 119.606V240H215.705L215.708 119.61L231.125 119.607" fill="black"/>
<path d="M123.719 80V84.4062H105.031V80H123.719ZM123.719 95.8445V124.562H105.031V95.8445H123.719ZM123.719 134.135V165.865H105.031V134.135H123.719ZM123.719 176.524V200.375L139.125 200.406L114.719 229.594L90 200.406H105.031V176.524L123.719 176.524Z" fill="black"/>
</svg>
